app/assets/SVG/recommoned.svg

<?xml version="1.0" encoding="UTF-8"?>
<svg width="24px" height="24px" viewBox="0 0 24 24" version="1.1" xmlns="http://www.w3.org/2000/svg" xmlns:xlink="http://www.w3.org/1999/xlink">
    <!-- Generator: Sketch 46.1 (44463) - http://www.bohemiancoding.com/sketch -->
    <title>recommoned</title>
    <desc>Created with Sketch.</desc>
    <defs></defs>
    <g id="01_main" stroke="none" stroke-width="1" fill="none" fill-rule="evenodd">
        <g id="05_mine_0803-copy-2" transform="translate(-26.000000, -576.000000)" fill="#28D424">
            <g id="recommoned" transform="translate(26.000000, 576.000000)">
                <path d="M12.0847694,17.3707477 L19.9549616,20.5710009 L19.9549616,3.63234434 C19.9560419,3.52434651 19.913951,3.4203887 19.8380389,3.34356386 C19.7621268,3.26673902 19.6586795,3.22340864 19.5506765,3.22319803 L4.6318253,3.22319803 C4.52396346,3.22351724 4.42068269,3.26683951 4.34487012,3.34356456 C4.26905756,3.42028962 4.22697401,3.52408129 4.22794524,3.63193924 L4.22794524,20.5701907 L12.0847694,17.3707477 L12.0847694,17.3707477 Z M3.01265922,3.63234434 C3.01158349,3.20210154 3.1816599,2.78909415 3.48539411,2.48437205 C3.78912833,2.17964996 4.20158127,2.00823335 4.6318253,2.00791201 L19.5506765,2.00791201 C19.9809204,2.00812605 20.3934159,2.17943962 20.697226,2.48408568 C21.0010362,2.78873175 21.1712157,3.20169639 21.1702476,3.63193924 L21.1702476,20.7532938 C21.1702476,21.6501749 20.4949537,22.1022613 19.6701796,21.7672474 L12.0851745,18.6828515 L4.5107018,21.7672474 C3.6834971,22.1038816 3.01265922,21.6522003 3.01265922,20.7532938 L3.01265922,3.63193924 L3.01265922,3.63234434 Z" id="Shape"></path>
                <path d="M10.6458707,11.3964016 L9.17942559,9.96722526 L11.2057125,9.67272094 L12.1119108,7.83682886 L13.0177039,9.67272094 L15.0439908,9.96722526 L13.5775457,11.3964016 L13.9239022,13.4141815 L12.1119108,12.4613973 L10.2995142,13.4141815 L10.6458707,11.3964016 L10.6458707,11.3964016 Z M13.5086795,8.51617375 L13.9664372,8.84835193 L13.8246539,8.56194951 L13.5086795,8.51617375 Z M10.2573843,8.84835193 L10.715142,8.51617375 L10.3987626,8.56194951 L10.2569792,8.84875701 L10.2573843,8.84835193 Z M13.7322921,14.686586 C14.5728649,15.1281399 15.3538888,14.5618166 15.1930659,13.6252362 L14.8835731,11.8205364 L16.1948667,10.5424606 C16.8746167,9.87972466 16.5772767,8.96218372 15.6370504,8.8252615 L13.8250589,8.56194951 L13.0148683,6.9200981 C12.5943793,6.0685877 11.6294422,6.0681826 11.2089532,6.9200981 L10.3987626,8.56194951 L8.58677111,8.8252615 C7.64694992,8.96177864 7.34839466,9.87931958 8.02854973,10.5428657 L9.33984334,11.8205364 L9.03035051,13.6252362 C8.86993276,14.5610064 9.65014638,15.1289501 10.4911243,14.686586 L12.1115056,13.8346705 L13.7322921,14.686586 L13.7322921,14.686586 Z" id="Shape"></path>
            </g>
        </g>
    </g>
</svg>

<svg width="24" height="24" viewBox="0 0 24 24" xmlns="http://www.w3.org/2000/svg"><title>recommoned</title><g fill="#28D424" fill-rule="evenodd"><path d="M12.085 17.37l7.87 3.201V3.632a.405.405 0 0 0-.404-.409H4.63a.405.405 0 0 0-.403.409V20.57l7.857-3.2zM3.013 3.633a1.62 1.62 0 0 1 1.619-1.624H19.55a1.62 1.62 0 0 1 1.62 1.624v17.121c0 .897-.676 1.35-1.5 1.014l-7.586-3.084-7.574 3.084c-.828.337-1.498-.115-1.498-1.014V3.632z"/><path d="M10.646 11.396L9.179 9.967l2.027-.294.906-1.836.906 1.836 2.026.294-1.466 1.43.346 2.017-1.812-.953-1.812.953.346-2.018zm2.863-2.88l.457.332-.141-.286-.316-.046zm-3.252.332l.458-.332-.316.046-.142.287zm3.475 5.839c.84.441 1.622-.125 1.461-1.062l-.31-1.804 1.312-1.279c.68-.662.382-1.58-.558-1.717l-1.812-.263-.81-1.642c-.42-.851-1.386-.852-1.806 0l-.81 1.642-1.812.263c-.94.137-1.239 1.054-.558 1.718l1.31 1.278-.309 1.804c-.16.936.62 1.504 1.461 1.062l1.62-.852 1.621.852z"/></g></svg>
